svg/l/WF.svg

<svg fill="none" height="24" viewBox="0 0 32 24" width="32" xmlns="http://www.w3.org/2000/svg" xmlns:xlink="http://www.w3.org/1999/xlink"><mask id="a" height="24" maskUnits="userSpaceOnUse" width="32" x="0" y="0"><path d="m0 0h32v24h-32z" fill="#fff"/></mask><g clip-rule="evenodd" fill-rule="evenodd" mask="url(#a)"><path d="m22 0h10v24h-10z" fill="#c51918"/><path d="m0 0h12v24h-12z" fill="#2e42a5"/><path d="m10 0h12v24h-12z" fill="#f7fcff"/></g></svg>

<svg width="32" height="24" viewBox="0 0 32 24" fill="none" xmlns="http://www.w3.org/2000/svg">
<mask id="mask0" mask-type="alpha" maskUnits="userSpaceOnUse" x="0" y="0" width="32" height="24">
<rect width="32" height="24" fill="white"/>
</mask>
<g mask="url(#mask0)">
<path fill-rule="evenodd" clip-rule="evenodd" d="M22 0H32V24H22V0Z" fill="#C51918"/>
<path fill-rule="evenodd" clip-rule="evenodd" d="M0 0H12V24H0V0Z" fill="#2E42A5"/>
<path fill-rule="evenodd" clip-rule="evenodd" d="M10 0H22V24H10V0Z" fill="#F7FCFF"/>
</g>
</svg>
